packages/match-icons/sendgrid/svg/chevron-down.svg

<svg fill="none" height="16" viewBox="0 0 16 16" width="16" xmlns="http://www.w3.org/2000/svg"><path clip-rule="evenodd" d="m8 8.73726-5.26863-5.26863c-.62484-.62484-1.6379-.62484-2.262741 0-.624839.62484-.624839 1.6379 0 2.26274l6.400001 6.40003c.62484.6248 1.6379.6248 2.26274 0l6.40003-6.40003c.6248-.62484.6248-1.6379 0-2.26274-.6249-.62484-1.6379-.62484-2.2628 0z" fill="#394762" fill-rule="evenodd"/></svg>

<svg width="16" height="16" viewBox="0 0 16 16" fill="none" xmlns="http://www.w3.org/2000/svg">
<path fill-rule="evenodd" clip-rule="evenodd" d="M8 8.73726L2.73137 3.46863C2.10653 2.84379 1.09347 2.84379 0.468629 3.46863C-0.15621 4.09347 -0.15621 5.10653 0.468629 5.73137L6.86863 12.1314C7.49347 12.7562 8.50653 12.7562 9.13137 12.1314L15.5314 5.73137C16.1562 5.10653 16.1562 4.09347 15.5314 3.46863C14.9065 2.84379 13.8935 2.84379 13.2686 3.46863L8 8.73726Z" fill="#394762"/>
</svg>
